X:8
T:The Limejuice Ship
M:6/8
L:1/8
Q:1/4=3D110
K:F
C|\
F2F F2G|A2A c2A|G2F G2A|F3-F2c|
c2c c2c|d2d c2A|G2F G2A|G3-G3 |
d3  d2e|f2f f2d|c2A F2A|c3-c2C/C/|
F2F F2F/G/|A2A c2A|G2F G2A|F3-F2c|
F3  FFG|AAA c2A|G2F G2A|F3-F3 |
f3  f2f|d2d c2A|G2F G2A|G3-G2d|
d3  d2e|f3- f2d|c2A F2A|c3-c3|
F2F FFG|A2A c2A|G2F G2A|F3-F2||
